Origami/64x64/apps/preferences-desktop-plasma.svg

<svg width="64" height="64" version="1.1" viewBox="0 0 64 64" xmlns="http://www.w3.org/2000/svg">
 <rect transform="matrix(0,-1,-1,0,0,0)" x="-56" y="-60" width="48" height="56" rx="2.572" ry="3" style="fill:#4ab3e4"/>
 <path d="m4 53.429688v1c0 1.423999 1.338 2.570312 3 2.570312h50c1.662 0 3-1.145653 3-2.570312v-1c0 1.424659-1.338 2.570312-3 2.570312h-50c-1.662 0-3-1.146313-3-2.570312z" style="opacity:.2"/>
 <path d="m7 8c-1.662 0-3 1.1381-3 2.5625v1c0-1.4244 1.338-2.5625 3-2.5625h50c1.662 0 3 1.1381 3 2.5625v-1c0-1.4244-1.338-2.5625-3-2.5625h-50z" style="fill:#ffffff;opacity:.2"/>
 <g transform="matrix(-.125574 0 0 -.12457773 47.532 51.162851)" style="opacity:.2">
  <path transform="matrix(-15.927,0,0,-16.054,378.52,402.66)" d="m13.871 7c-0.416 0.0038-0.82 0.0454-1.178 0.1328-2.7152 0.6643-5.464 1.9181-6.8571 4.7972-2.135 4.675-0.0386 10.204 4.6741 12.322 2.605 1.148 5.071 1.039 7.119-0.775 0.603-0.545 1.096-1.167 1.291-2.063 0.388-1.782-0.558-4.297-4.371-6.012-3.589-1.613-4.266-4.003-3.756-5.5602 0.514-1.571 2.408-2.9903 5.35-2.3906 0.314 0.0657 0.625 0.1507 0.931 0.2519-0.589-0.3927-1.954-0.7142-3.203-0.7029zm5.129 0a2 2 0 0 0 -2 2 2 2 0 0 0 2 2 2 2 0 0 0 2 -2 2 2 0 0 0 -2 -2zm4 3a2 2 0 0 0 -2 2 2 2 0 0 0 2 2 2 2 0 0 0 2 -2 2 2 0 0 0 -2 -2zm2 5a2 2 0 0 0 -2 2 2 2 0 0 0 2 2 2 2 0 0 0 2 -2 2 2 0 0 0 -2 -2z"/>
 </g>
 <g transform="matrix(-.125574 0 0 -.12457704 47.532 50.16285)" style="fill:#ffffff">
  <path transform="matrix(-15.927,0,0,-16.054,378.52,402.66)" d="m13.871 7c-0.416 0.0038-0.82 0.0454-1.178 0.1328-2.7152 0.6643-5.464 1.9181-6.8571 4.7972-2.135 4.675-0.0386 10.204 4.6741 12.322 2.605 1.148 5.071 1.039 7.119-0.775 0.603-0.545 1.096-1.167 1.291-2.063 0.388-1.782-0.558-4.297-4.371-6.012-3.589-1.613-4.266-4.003-3.756-5.5602 0.514-1.571 2.408-2.9903 5.35-2.3906 0.314 0.0657 0.625 0.1507 0.931 0.2519-0.589-0.3928-1.954-0.7143-3.203-0.703zm5.129 0a2 2 0 0 0 -2 2 2 2 0 0 0 2 2 2 2 0 0 0 2 -2 2 2 0 0 0 -2 -2zm4 3a2 2 0 0 0 -2 2 2 2 0 0 0 2 2 2 2 0 0 0 2 -2 2 2 0 0 0 -2 -2zm2 5a2 2 0 0 0 -2 2 2 2 0 0 0 2 2 2 2 0 0 0 2 -2 2 2 0 0 0 -2 -2z"/>
 </g>
</svg>

<svg xmlns="http://www.w3.org/2000/svg" width="64" height="64" version="1.1" viewBox="0 0 64 64">
 <rect style="fill:#4ab3e4" width="48" height="56" x="-56" y="-60" rx="2.572" ry="3" transform="matrix(0,-1,-1,0,0,0)"/>
 <path style="opacity:0.2" d="m 4,53.429688 0,1 C 4,55.853687 5.338,57 7,57 l 50,0 c 1.662,0 3,-1.145653 3,-2.570312 l 0,-1 C 60,54.854347 58.662,56 57,56 L 7,56 C 5.338,56 4,54.853687 4,53.429688 Z"/>
 <path style="opacity:0.2;fill:#ffffff" d="M 7 8 C 5.338 8 4 9.1381 4 10.5625 L 4 11.5625 C 4 10.1381 5.338 9 7 9 L 57 9 C 58.662 9 60 10.1381 60 11.5625 L 60 10.5625 C 60 9.1381 58.662 8 57 8 L 7 8 z"/>
 <g style="opacity:0.2" transform="matrix(-0.125574,0,0,-0.12457773,47.532,51.162851)">
  <g>
   <g>
    <path d="M 13.871,7 C 13.455,7.0038 13.051,7.0454 12.693,7.1328 9.9778,7.7971 7.229,9.0509 5.8359,11.93 3.7009,16.605 5.7973,22.134 10.51,24.252 c 2.605,1.148 5.071,1.039 7.119,-0.775 0.603,-0.545 1.096,-1.167 1.291,-2.063 0.388,-1.782 -0.558,-4.297 -4.371,-6.012 -3.589,-1.613 -4.266,-4.003 -3.756,-5.5602 0.514,-1.571 2.408,-2.9903 5.35,-2.3906 0.314,0.0657 0.625,0.1507 0.931,0.2519 C 16.485,7.3104 15.12,6.9889 13.871,7.0002 Z M 19,7 a 2,2 0 0 0 -2,2 2,2 0 0 0 2,2 2,2 0 0 0 2,-2 2,2 0 0 0 -2,-2 z m 4,3 a 2,2 0 0 0 -2,2 2,2 0 0 0 2,2 2,2 0 0 0 2,-2 2,2 0 0 0 -2,-2 z m 2,5 a 2,2 0 0 0 -2,2 2,2 0 0 0 2,2 2,2 0 0 0 2,-2 2,2 0 0 0 -2,-2 z" transform="matrix(-15.927,0,0,-16.054,378.52,402.66)"/>
   </g>
  </g>
 </g>
 <g style="fill:#ffffff" transform="matrix(-0.125574,0,0,-0.12457704,47.532,50.16285)">
  <g>
   <g>
    <path d="M 13.871,7 C 13.455,7.0038 13.051,7.0454 12.693,7.1328 9.9778,7.7971 7.229,9.0509 5.8359,11.93 3.7009,16.605 5.7973,22.134 10.51,24.252 c 2.605,1.148 5.071,1.039 7.119,-0.775 0.603,-0.545 1.096,-1.167 1.291,-2.063 0.388,-1.782 -0.558,-4.297 -4.371,-6.012 -3.589,-1.613 -4.266,-4.003 -3.756,-5.5602 0.514,-1.571 2.408,-2.9903 5.35,-2.3906 0.314,0.0657 0.625,0.1507 0.931,0.2519 C 16.485,7.3103 15.12,6.9888 13.871,7.0001 Z M 19,7 a 2,2 0 0 0 -2,2 2,2 0 0 0 2,2 2,2 0 0 0 2,-2 2,2 0 0 0 -2,-2 z m 4,3 a 2,2 0 0 0 -2,2 2,2 0 0 0 2,2 2,2 0 0 0 2,-2 2,2 0 0 0 -2,-2 z m 2,5 a 2,2 0 0 0 -2,2 2,2 0 0 0 2,2 2,2 0 0 0 2,-2 2,2 0 0 0 -2,-2 z" transform="matrix(-15.927,0,0,-16.054,378.52,402.66)"/>
   </g>
  </g>
 </g>
</svg>
